X:1
T:ימי החנוכה
L:1/16
M:2/4
I:linebreak $
K:F
V:1 treble+8 nm="Блокфлейта" snm="Бл.фл."
V:1
 z[Q:1/8=80] D | AAAA d2AA | A2GF G2FD | AAAA d2AA | A2GF G2F2 |$ FGAG F2FF | G2FE F4 | FGAG F2F2 | %8
w: רה|לה * * * רה לה *|* סול פה סול פה רה|||פה * * * * * *|* * מי *||
 G2FE D2D2 |$ A2 A4 D2 | A2 A4 D2 | A2AA B2AG | A8 |:$ A2AA B2AG | AAAA B2AG |1 F2FF GGFG | A8 :|2 %17
w: |||||||||
 F2FF GGFE | D6 z2 |] %19
w: ||
